patterns/atoms/button/icon.svg

<svg width="24" height="24" xmlns="http://www.w3.org/2000/svg">
  <path d="M4 8v7h16V8H4zm0-1h16c.5522847 0 1 .44771525 1 1v7c0 .5522847-.4477153 1-1 1H4c-.55228475 0-1-.4477153-1-1V8c0-.55228475.44771525-1 1-1z" fill="#5C5C5C"/>
</svg>

<?xml version="1.0" encoding="UTF-8"?>
<svg width="24px" height="24px" viewBox="0 0 24 24" version="1.1" xmlns="http://www.w3.org/2000/svg" xmlns:xlink="http://www.w3.org/1999/xlink">
    <g fill="#5C5C5C">
        <path d="M4,8 L4,15 L20,15 L20,8 L4,8 Z M4,7 L20,7 C20.5522847,7 21,7.44771525 21,8 L21,15 C21,15.5522847 20.5522847,16 20,16 L4,16 C3.44771525,16 3,15.5522847 3,15 L3,8 C3,7.44771525 3.44771525,7 4,7 Z"></path>
    </g>
</svg>
